X: 27403
T: Mogh Roith
R: reel
M: 4/4
K: Gmajor
|:B2dB AGED|EGFA GABd|A2dA B2dB|AGED EAAE|
B2dB edBA|GEFD E2GF|GBBA Bdde|fdec dBAG/G/|
GEFD E3F:|GABc dcec|(3efg fe dcec|(3fga ge (3gab (3agf|
gefd e3d|ecdB A3G|BAGE D3E|GBdg gefd|GBdg (3gfe f2|
GBdg gefd|cBAG A2GA|BAGF E3F|GEFD E4||

